usr/share/icons/biglinux-icons-material/16/places/folder-txt.svg

<svg width="16" height="16" version="1.1" xmlns="http://www.w3.org/2000/svg">
 <defs>
  <style id="current-color-scheme" type="text/css">.ColorScheme-Text { color:#dedede; }</style>
 </defs>
 <path d="m7 0c-1.108 0-2 0.892-2 2v1h-2c-1.108 0-2 0.892-2 2v9c0 1.108 0.892 2 2 2h6c1.108 0 2-0.892 2-2v-1h2c1.108 0 2-0.892 2-2v-4.5859-1.4141l-5-5h-1-2zm0 1h2v4 1h5v5c0 0.554-0.446 1-1 1h-2v-2.5859-1.4141l-5-5v-1c0-0.1385 0.027656-0.27091 0.078125-0.39062 0.15141-0.35916 0.50638-0.60938 0.92188-0.60938zm3 0.41406 3.5859 3.5859h-3.5859v-3.5859zm-7 2.5859h2v4 1h5v5c0 0.554-0.446 1-1 1h-6c-0.554 0-1-0.446-1-1v-9c0-0.1385 0.027656-0.27091 0.078125-0.39062 0.15141-0.35916 0.50638-0.60938 0.92188-0.60938zm3 0.41406 3.5859 3.5859h-3.5859v-3.5859z" style="fill:currentColor" class="ColorScheme-Text"/>
</svg>

<svg xmlns="http://www.w3.org/2000/svg" width="16" height="16"><path d="M7 0C5.892 0 5 .892 5 2v1H3c-1.108 0-2 .892-2 2v9c0 1.108.892 2 2 2h6c1.108 0 2-.892 2-2v-1h2c1.108 0 2-.892 2-2V5l-5-5H7zm0 1h2v5h5v5c0 .554-.446 1-1 1h-2V8L6 3V2a.998.998 0 0 1 1-1zm3 .414L13.586 5H10V1.414zM3 4h2v5h5v5c0 .554-.446 1-1 1H3c-.554 0-1-.446-1-1V5a.998.998 0 0 1 1-1zm3 .414L9.586 8H6V4.414z" style="fill:currentColor;color:#dedede"/></svg>
